X:1
T: The Duchess of Gordon's Reel (A Strathspey)
C:William Marshall
R:Strathspey
Q: 128
K:D
M:4/4
L:1/16
|:F2|D3F DA3 FD3 AF3|D3F DF3 E4 EF3|D3F DA3 FD3 AF3|d3e fd3 F4 FA3|
D3F DA3 FD3 AF3|D3F DF3 E4 EF3|D3F DA3 FD3 AF3|d3e fd3 F6A2|
d3e fd3 eB3 dA3|B3c df3 e4 ef3|d3e fd3 eB3 dA3|GB3 FA3 E4 Ee3|
d3e fd3 eB3 dA3|B3c df3 e4 ed3|d3e fd3 eB3 dA3|GB3 FA3 E6:|
